X:940
T:Ayer vite na fonte (Arrg.)
R:Tonada
C:Tradicional
S:Msica Tradicional Asturiana, (C) Tello & Tito. Asturies, 2001.
S:http://pagina.de/MusTradAst <telloytito@asturies.org>
A:Asturies
G:Arrg.
Z:Les cuarenta principales
M:3/4
L:1/4
Q:3/4=50
W:Ayer vite na fonte,
W:tabes cantando,
W:y hoi que pas per ella
W:tabes llorando.
W:Dime porqu tas triste
W:y descolorida,
W:dime por qu sospires,
W:prenda querida.
W:
W:Sospiro por amores
W:que yo tena,
W:sospiro por amores
W:que yo quera.
W:Amores que tuvisti
W:sigues teniendo;
W:ya sabes que te quisi
W:y toi queriendo.
W:
W:Si tantu me quisisti
W:y tas queriendo,
W:Porqu nun vas veme
W:cuandu t'espero
K:Cm
|"Cm"C2 E|"Eb"GGG|"Fm"AGF-|"Fm"FGA|"Eb"B>AG-|"Eb"G3|
|"Cm"C2 E|"Eb"GGG|"Fm"AGF-|"Bb"FED|"Cm"E>DC-|"Cm"C3|
|"Cm"C2 D|"Cm"EEE|"Bb"FED-|"Bb"DEF|"Eb"G G2-|"Eb"G3|
|"Cm"C2 E|"Eb"GGG|"Fm"AGF-|"Bb"FED|"Cm"E>DC-|"Cm"C3|
